X:1
T:Graces. VWMLa.001
%%VWML:Anon2-3049-p1-0
F:http://www.vwml.org/record/Anon2/3049/p1
S:Anon. MS, late 18thC, Vaughan Williams Mem. Library
N:In the collection Pia or Po and Fo are always used
N:for Piano and Forte, but I shall enter
N:them as "P" and "^F"..CGP..
O:England;Yorkshire
Z:vmp/efdss.Simon Wilson. Reviewed PJH 2008.
M:2/4
L:1/16
Q:1/4=100
K:Bb
"P"B3cB3F|d2Bd f2df|g2eg a2fa|b2b2b4|
"^F"bbBB ffFF|GGAA BBB,B,|CCDD EE=EE|F2F2F4:|
|:"P"c3de2e2|(ed)(gf) (f3e/d/)|\
c3de2e2|(ed)(gf) (f3e/d/)|
"^F"B2cd efga|baba b2B2|G2ec B2A2|B2B2 B4:|
|:Bcdc BAGF|GABA GFED|EFGF EDCB,|F2F2 F4:|
|:f4d2B2|G2B2G2E2|g4e2c2|A2c2A2F2|\
f4d2B2|f4bgbg|f2D2E2F2|B,4B,4:|
